X: 67
T:Polka de l'Aveyron
M:2/4
L:1/8
Q:1/4=100
O:France
K:C
cB/2c/2 dg|fed2|cB/2c/2 dg|1g2d2:|2g2 cd/2e/2|
|:fd ec|dB cd/2e/2|fd ec|1dB cd/2e/2:|2d2c2||
W:
W: From "Falaleiro" http://home.t-online.de/home/pheld/homepage.htm

